icons/folder-seeders-open.svg

<?xml version="1.0" encoding="UTF-8"?>
<svg clip-rule="evenodd" fill-rule="evenodd" image-rendering="optimizeQuality" shape-rendering="geometricPrecision" text-rendering="geometricPrecision" version="1.1" viewBox="0 0 2400 2400" xmlns="http://www.w3.org/2000/svg">
    <path d="m2265.5 1205.5c-2.6-9.53-4.6-19.86-6-31-3.75-1.73-7.75-2.73-12-3-3.34-1.72-7.01-2.38-11-2-5.65-2.28-11.65-3.28-18-3-16.98-1.89-33.98-3.55-51-5-11.74-2.31-23.74-3.31-36-3-113.97-6.44-225.97 5.4-336 35.5-10.79 3.21-21.46 6.71-32 10.5-7.16 1.57-14.16 3.74-21 6.5-2.38 0.72-4.38 1.88-6 3.5-2.65-0.09-4.99 0.58-7 2-174.16 68.83-294.16 190.83-360 366-1.57 2.01-2.57 4.34-3 7-0.06 1.11-0.39 2.11-1 3-1.7 3.44-3.04 7.11-4 11v2c-3.49 6.14-5.82 12.8-7 20-1.78 3-2.78 6.34-3 10v1c-1.57 1.6-2.24 3.6-2 6-0.8 1.54-1.13 3.21-1 5-1.9 2.2-2.9 4.86-3 8-10.83 41.79-18.83 84.13-24 127-0.72 0.42-1.22 1.08-1.5 2-0.83 6.65-1.33 13.31-1.5 20-2.5 22.61-4.33 45.28-5.5 68-0.17 42.5-0.67 84.84-1.5 127-310.33 0.17-620.67 0-931-0.5-81.773-10.78-138.27-54.28-169.5-130.5-5.453-15.93-9.119-32.26-11-49-0.667-414-0.667-828 0-1242 12.728-86.049 60.228-142.88 142.5-170.5 9.2-2.633 18.533-4.633 28-6 209.98-1.657 419.98-1.99 630-1 66.33 66.333 132.67 132.67 199 199 240 0.333 480 0.667 720 1 74.15 9.858 127.98 48.025 161.5 114.5 12.36 26.973 18.53 55.306 18.5 85h-1700c-0.167 332 0 664 0.5 996 71.149-265.27 141.98-530.6 212.5-796h1708c-17.71 68.85-36.05 137.52-55 206z" fill="#388e3c" opacity=".999"/>
    <path d="m2131.5 1158.5c11.82 1.37 23.82 2.37 36 3 17.02 1.45 34.02 3.11 51 5 5.79 1.48 11.79 2.48 18 3 3.47 1.02 7.14 1.69 11 2 4.25 0.27 8.25 1.27 12 3 1.4 11.14 3.4 21.47 6 31 15.13 108.26 14.63 216.59-1.5 325-16.63 115.84-57.63 221.84-123 318-65.35 89.68-148.85 156.85-250.5 201.5-94.64 39.99-193.31 63.33-296 70-47.62 3.25-95.28 4.25-143 3-44.06-2.38-88.06-5.54-132-9.5-3.42-37.95-6.09-75.95-8-114 0.83-42.16 1.33-84.5 1.5-127 1.17-22.72 3-45.39 5.5-68 1.28-7.16 2.28-14.49 3-22 5.17-42.87 13.17-85.21 24-127 1.6-2.35 2.6-5.01 3-8-0.13-1.79 0.2-3.46 1-5 1.57-1.6 2.24-3.6 2-6v-1c1.78-3 2.78-6.34 3-10 2.7-6.44 5.04-13.11 7-20v-2c2.49-3.13 3.82-6.79 4-11 0.61-0.89 0.94-1.89 1-3 2.33-1.68 3.33-4.01 3-7 65.84-175.17 185.84-297.17 360-366 2.65 0.09 4.99-0.58 7-2 9.23-2.96 18.23-6.3 27-10 10.54-3.79 21.21-7.29 32-10.5 110.03-30.1 222.03-41.94 336-35.5z" fill="#a4d5a6" opacity=".997"/>
    <path d="m2131.5 1158.5c12.26-0.31 24.26 0.69 36 3-12.18-0.63-24.18-1.63-36-3z" fill="#529f55"/>
    <path d="m2218.5 1166.5c6.35-0.28 12.35 0.72 18 3-6.21-0.52-12.21-1.52-18-3z" fill="#55a158"/>
    <path d="m2236.5 1169.5c3.99-0.38 7.66 0.28 11 2-3.86-0.31-7.53-0.98-11-2z" fill="#5ea660"/>
    <path d="m1763.5 1204.5c-8.77 3.7-17.77 7.04-27 10 1.62-1.62 3.62-2.78 6-3.5 6.84-2.76 13.84-4.93 21-6.5z" fill="#7cba7e"/>
    <path d="m1736.5 1214.5c-2.01 1.42-4.35 2.09-7 2 2.01-1.42 4.35-2.09 7-2z" fill="#7ebc81"/>
    <path d="m2031.5 1372.5c8.82-1.16 17.82-1.32 27-0.5-0.54 0.72-1.21 1.22-2 1.5-8.15-0.99-16.48-1.33-25-1z" fill="#76b779"/>
    <path d="m2029.5 1372.5h2c8.52-0.33 16.85 0.01 25 1-25.52 9.59-50.18 21.09-74 34.5-90.96 51.24-172.46 115.07-244.5 191.5-85.32 91.26-155.82 192.93-211.5 305-0.99-7.48-1.33-15.15-1-23 0.74-3.62 1.08-7.29 1-11 1.47-4.42 2.14-9.09 2-14v-3c2.18-8.41 3.51-17.07 4-26v-2c2.26-4.97 3.26-10.31 3-16 0.16-3.79 0.83-7.46 2-11 2.54-3.85 3.54-8.19 3-13 1.8-9.56 4.14-18.9 7-28 1.42-2.01 2.09-4.35 2-7 22.62-84.58 62.45-159.58 119.5-225 68.06-72.13 150.9-118.46 248.5-139 8.67-0.53 17.01-2.2 25-5 2.79-0.98 5.79-1.31 9-1 8.85-1.02 17.51-2.35 26-4 3.23-0.91 6.56-1.25 10-1 14.21-0.09 28.21-1.09 42-3z" fill="#388e3c"/>
    <path d="m2029.5 1372.5c-13.79 1.91-27.79 2.91-42 3 13.78-1.95 27.78-2.95 42-3z" fill="#59a45c"/>
    <path d="m1977.5 1376.5c-8.49 1.65-17.15 2.98-26 4 8.35-2.46 17.02-3.8 26-4z" fill="#64aa66"/>
    <path d="m1942.5 1381.5c-7.99 2.8-16.33 4.47-25 5 8.04-2.54 16.37-4.21 25-5z" fill="#54a057"/>
    <path d="m1369.5 1582.5c0.33 2.99-0.67 5.32-3 7 0.43-2.66 1.43-4.99 3-7z" fill="#80bd83"/>
    <path d="m1365.5 1592.5c-0.18 4.21-1.51 7.87-4 11 0.96-3.89 2.3-7.56 4-11z" fill="#77b77a"/>
    <path d="m1361.5 1605.5c-1.96 6.89-4.3 13.56-7 20 1.18-7.2 3.51-13.86 7-20z" fill="#6aaf6d"/>
    <path d="m1354.5 1625.5c-0.22 3.66-1.22 7-3 10 0.22-3.66 1.22-7 3-10z" fill="#6eb170"/>
    <path d="m1351.5 1636.5c0.24 2.4-0.43 4.4-2 6-0.24-2.4 0.43-4.4 2-6z" fill="#77b779"/>
    <path d="m1348.5 1647.5c-0.4 2.99-1.4 5.65-3 8 0.1-3.14 1.1-5.8 3-8z" fill="#60a863"/>
    <path d="m1549.5 1750.5c0.09 2.65-0.58 4.99-2 7-0.09-2.65 0.58-4.99 2-7z" fill="#5da55f"/>
    <path d="m1321.5 1782.5c-0.72 7.51-1.72 14.84-3 22 0.17-6.69 0.67-13.35 1.5-20 0.28-0.92 0.78-1.58 1.5-2z" fill="#5ea761"/>
    <path d="m1540.5 1785.5c0.54 4.81-0.46 9.15-3 13 0.84-4.49 1.84-8.82 3-13z" fill="#55a057"/>
    <path d="m1535.5 1809.5c0.26 5.69-0.74 11.03-3 16 0.46-5.56 1.46-10.89 3-16z" fill="#5ca55f"/>
    <path d="m1532.5 1827.5c-0.49 8.93-1.82 17.59-4 26 0.32-8.95 1.66-17.62 4-26z" fill="#62aa65"/>
    <path d="m1528.5 1856.5c0.14 4.91-0.53 9.58-2 14-0.14-4.91 0.53-9.58 2-14z" fill="#64ab67"/>
    <path d="m1525.5 1881.5c-0.33 7.85 0.01 15.52 1 23-0.28 0.79-0.78 1.46-1.5 2-0.82-8.51-0.66-16.84 0.5-25z" fill="#66ac69"/>
</svg>

<?xml version="1.0" encoding="UTF-8"?>
<!DOCTYPE svg PUBLIC "-//W3C//DTD SVG 1.1//EN" "http://www.w3.org/Graphics/SVG/1.1/DTD/svg11.dtd">
<svg xmlns="http://www.w3.org/2000/svg" version="1.1" width="2400px" height="2400px" style="shape-rendering:geometricPrecision; text-rendering:geometricPrecision; image-rendering:optimizeQuality; fill-rule:evenodd; clip-rule:evenodd" xmlns:xlink="http://www.w3.org/1999/xlink">
<g><path style="opacity:0.999" fill="#388e3c" d="M 2265.5,1205.5 C 2262.9,1195.97 2260.9,1185.64 2259.5,1174.5C 2255.75,1172.77 2251.75,1171.77 2247.5,1171.5C 2244.16,1169.78 2240.49,1169.12 2236.5,1169.5C 2230.85,1167.22 2224.85,1166.22 2218.5,1166.5C 2201.52,1164.61 2184.52,1162.95 2167.5,1161.5C 2155.76,1159.19 2143.76,1158.19 2131.5,1158.5C 2017.53,1152.06 1905.53,1163.9 1795.5,1194C 1784.71,1197.21 1774.04,1200.71 1763.5,1204.5C 1756.34,1206.07 1749.34,1208.24 1742.5,1211C 1740.12,1211.72 1738.12,1212.88 1736.5,1214.5C 1733.85,1214.41 1731.51,1215.08 1729.5,1216.5C 1555.34,1285.33 1435.34,1407.33 1369.5,1582.5C 1367.93,1584.51 1366.93,1586.84 1366.5,1589.5C 1366.44,1590.61 1366.11,1591.61 1365.5,1592.5C 1363.8,1595.94 1362.46,1599.61 1361.5,1603.5C 1361.5,1604.17 1361.5,1604.83 1361.5,1605.5C 1358.01,1611.64 1355.68,1618.3 1354.5,1625.5C 1352.72,1628.5 1351.72,1631.84 1351.5,1635.5C 1351.5,1635.83 1351.5,1636.17 1351.5,1636.5C 1349.93,1638.1 1349.26,1640.1 1349.5,1642.5C 1348.7,1644.04 1348.37,1645.71 1348.5,1647.5C 1346.6,1649.7 1345.6,1652.36 1345.5,1655.5C 1334.67,1697.29 1326.67,1739.63 1321.5,1782.5C 1320.78,1782.92 1320.28,1783.58 1320,1784.5C 1319.17,1791.15 1318.67,1797.81 1318.5,1804.5C 1316,1827.11 1314.17,1849.78 1313,1872.5C 1312.83,1915 1312.33,1957.34 1311.5,1999.5C 1001.17,1999.67 690.833,1999.5 380.5,1999C 298.727,1988.22 242.227,1944.72 211,1868.5C 205.547,1852.57 201.881,1836.24 200,1819.5C 199.333,1405.5 199.333,991.5 200,577.5C 212.728,491.451 260.228,434.617 342.5,407C 351.7,404.367 361.033,402.367 370.5,401C 580.48,399.343 790.48,399.01 1000.5,400C 1066.83,466.333 1133.17,532.667 1199.5,599C 1439.5,599.333 1679.5,599.667 1919.5,600C 1993.65,609.858 2047.48,648.025 2081,714.5C 2093.36,741.473 2099.53,769.806 2099.5,799.5C 1532.83,799.5 966.167,799.5 399.5,799.5C 399.333,1131.5 399.5,1463.5 400,1795.5C 471.149,1530.23 541.983,1264.9 612.5,999.5C 1181.83,999.5 1751.17,999.5 2320.5,999.5C 2302.79,1068.35 2284.45,1137.02 2265.5,1205.5 Z"/></g>
<g><path style="opacity:0.997" fill="#a4d5a6" d="M 2131.5,1158.5 C 2143.32,1159.87 2155.32,1160.87 2167.5,1161.5C 2184.52,1162.95 2201.52,1164.61 2218.5,1166.5C 2224.29,1167.98 2230.29,1168.98 2236.5,1169.5C 2239.97,1170.52 2243.64,1171.19 2247.5,1171.5C 2251.75,1171.77 2255.75,1172.77 2259.5,1174.5C 2260.9,1185.64 2262.9,1195.97 2265.5,1205.5C 2280.63,1313.76 2280.13,1422.09 2264,1530.5C 2247.37,1646.34 2206.37,1752.34 2141,1848.5C 2075.65,1938.18 1992.15,2005.35 1890.5,2050C 1795.86,2089.99 1697.19,2113.33 1594.5,2120C 1546.88,2123.25 1499.22,2124.25 1451.5,2123C 1407.44,2120.62 1363.44,2117.46 1319.5,2113.5C 1316.08,2075.55 1313.41,2037.55 1311.5,1999.5C 1312.33,1957.34 1312.83,1915 1313,1872.5C 1314.17,1849.78 1316,1827.11 1318.5,1804.5C 1319.78,1797.34 1320.78,1790.01 1321.5,1782.5C 1326.67,1739.63 1334.67,1697.29 1345.5,1655.5C 1347.1,1653.15 1348.1,1650.49 1348.5,1647.5C 1348.37,1645.71 1348.7,1644.04 1349.5,1642.5C 1351.07,1640.9 1351.74,1638.9 1351.5,1636.5C 1351.5,1636.17 1351.5,1635.83 1351.5,1635.5C 1353.28,1632.5 1354.28,1629.16 1354.5,1625.5C 1357.2,1619.06 1359.54,1612.39 1361.5,1605.5C 1361.5,1604.83 1361.5,1604.17 1361.5,1603.5C 1363.99,1600.37 1365.32,1596.71 1365.5,1592.5C 1366.11,1591.61 1366.44,1590.61 1366.5,1589.5C 1368.83,1587.82 1369.83,1585.49 1369.5,1582.5C 1435.34,1407.33 1555.34,1285.33 1729.5,1216.5C 1732.15,1216.59 1734.49,1215.92 1736.5,1214.5C 1745.73,1211.54 1754.73,1208.2 1763.5,1204.5C 1774.04,1200.71 1784.71,1197.21 1795.5,1194C 1905.53,1163.9 2017.53,1152.06 2131.5,1158.5 Z"/></g>
<g><path style="opacity:1" fill="#529f55" d="M 2131.5,1158.5 C 2143.76,1158.19 2155.76,1159.19 2167.5,1161.5C 2155.32,1160.87 2143.32,1159.87 2131.5,1158.5 Z"/></g>
<g><path style="opacity:1" fill="#55a158" d="M 2218.5,1166.5 C 2224.85,1166.22 2230.85,1167.22 2236.5,1169.5C 2230.29,1168.98 2224.29,1167.98 2218.5,1166.5 Z"/></g>
<g><path style="opacity:1" fill="#5ea660" d="M 2236.5,1169.5 C 2240.49,1169.12 2244.16,1169.78 2247.5,1171.5C 2243.64,1171.19 2239.97,1170.52 2236.5,1169.5 Z"/></g>
<g><path style="opacity:1" fill="#7cba7e" d="M 1763.5,1204.5 C 1754.73,1208.2 1745.73,1211.54 1736.5,1214.5C 1738.12,1212.88 1740.12,1211.72 1742.5,1211C 1749.34,1208.24 1756.34,1206.07 1763.5,1204.5 Z"/></g>
<g><path style="opacity:1" fill="#7ebc81" d="M 1736.5,1214.5 C 1734.49,1215.92 1732.15,1216.59 1729.5,1216.5C 1731.51,1215.08 1733.85,1214.41 1736.5,1214.5 Z"/></g>
<g><path style="opacity:1" fill="#76b779" d="M 2031.5,1372.5 C 2040.32,1371.34 2049.32,1371.18 2058.5,1372C 2057.96,1372.72 2057.29,1373.22 2056.5,1373.5C 2048.35,1372.51 2040.02,1372.17 2031.5,1372.5 Z"/></g>
<g><path style="opacity:1" fill="#388e3c" d="M 2029.5,1372.5 C 2030.17,1372.5 2030.83,1372.5 2031.5,1372.5C 2040.02,1372.17 2048.35,1372.51 2056.5,1373.5C 2030.98,1383.09 2006.32,1394.59 1982.5,1408C 1891.54,1459.24 1810.04,1523.07 1738,1599.5C 1652.68,1690.76 1582.18,1792.43 1526.5,1904.5C 1525.51,1897.02 1525.17,1889.35 1525.5,1881.5C 1526.24,1877.88 1526.58,1874.21 1526.5,1870.5C 1527.97,1866.08 1528.64,1861.41 1528.5,1856.5C 1528.5,1855.5 1528.5,1854.5 1528.5,1853.5C 1530.68,1845.09 1532.01,1836.43 1532.5,1827.5C 1532.5,1826.83 1532.5,1826.17 1532.5,1825.5C 1534.76,1820.53 1535.76,1815.19 1535.5,1809.5C 1535.66,1805.71 1536.33,1802.04 1537.5,1798.5C 1540.04,1794.65 1541.04,1790.31 1540.5,1785.5C 1542.3,1775.94 1544.64,1766.6 1547.5,1757.5C 1548.92,1755.49 1549.59,1753.15 1549.5,1750.5C 1572.12,1665.92 1611.95,1590.92 1669,1525.5C 1737.06,1453.37 1819.9,1407.04 1917.5,1386.5C 1926.17,1385.97 1934.51,1384.3 1942.5,1381.5C 1945.29,1380.52 1948.29,1380.19 1951.5,1380.5C 1960.35,1379.48 1969.01,1378.15 1977.5,1376.5C 1980.73,1375.59 1984.06,1375.25 1987.5,1375.5C 2001.71,1375.41 2015.71,1374.41 2029.5,1372.5 Z"/></g>
<g><path style="opacity:1" fill="#59a45c" d="M 2029.5,1372.5 C 2015.71,1374.41 2001.71,1375.41 1987.5,1375.5C 2001.28,1373.55 2015.28,1372.55 2029.5,1372.5 Z"/></g>
<g><path style="opacity:1" fill="#64aa66" d="M 1977.5,1376.5 C 1969.01,1378.15 1960.35,1379.48 1951.5,1380.5C 1959.85,1378.04 1968.52,1376.7 1977.5,1376.5 Z"/></g>
<g><path style="opacity:1" fill="#54a057" d="M 1942.5,1381.5 C 1934.51,1384.3 1926.17,1385.97 1917.5,1386.5C 1925.54,1383.96 1933.87,1382.29 1942.5,1381.5 Z"/></g>
<g><path style="opacity:1" fill="#80bd83" d="M 1369.5,1582.5 C 1369.83,1585.49 1368.83,1587.82 1366.5,1589.5C 1366.93,1586.84 1367.93,1584.51 1369.5,1582.5 Z"/></g>
<g><path style="opacity:1" fill="#77b77a" d="M 1365.5,1592.5 C 1365.32,1596.71 1363.99,1600.37 1361.5,1603.5C 1362.46,1599.61 1363.8,1595.94 1365.5,1592.5 Z"/></g>
<g><path style="opacity:1" fill="#6aaf6d" d="M 1361.5,1605.5 C 1359.54,1612.39 1357.2,1619.06 1354.5,1625.5C 1355.68,1618.3 1358.01,1611.64 1361.5,1605.5 Z"/></g>
<g><path style="opacity:1" fill="#6eb170" d="M 1354.5,1625.5 C 1354.28,1629.16 1353.28,1632.5 1351.5,1635.5C 1351.72,1631.84 1352.72,1628.5 1354.5,1625.5 Z"/></g>
<g><path style="opacity:1" fill="#77b779" d="M 1351.5,1636.5 C 1351.74,1638.9 1351.07,1640.9 1349.5,1642.5C 1349.26,1640.1 1349.93,1638.1 1351.5,1636.5 Z"/></g>
<g><path style="opacity:1" fill="#60a863" d="M 1348.5,1647.5 C 1348.1,1650.49 1347.1,1653.15 1345.5,1655.5C 1345.6,1652.36 1346.6,1649.7 1348.5,1647.5 Z"/></g>
<g><path style="opacity:1" fill="#5da55f" d="M 1549.5,1750.5 C 1549.59,1753.15 1548.92,1755.49 1547.5,1757.5C 1547.41,1754.85 1548.08,1752.51 1549.5,1750.5 Z"/></g>
<g><path style="opacity:1" fill="#5ea761" d="M 1321.5,1782.5 C 1320.78,1790.01 1319.78,1797.34 1318.5,1804.5C 1318.67,1797.81 1319.17,1791.15 1320,1784.5C 1320.28,1783.58 1320.78,1782.92 1321.5,1782.5 Z"/></g>
<g><path style="opacity:1" fill="#55a057" d="M 1540.5,1785.5 C 1541.04,1790.31 1540.04,1794.65 1537.5,1798.5C 1538.34,1794.01 1539.34,1789.68 1540.5,1785.5 Z"/></g>
<g><path style="opacity:1" fill="#5ca55f" d="M 1535.5,1809.5 C 1535.76,1815.19 1534.76,1820.53 1532.5,1825.5C 1532.96,1819.94 1533.96,1814.61 1535.5,1809.5 Z"/></g>
<g><path style="opacity:1" fill="#62aa65" d="M 1532.5,1827.5 C 1532.01,1836.43 1530.68,1845.09 1528.5,1853.5C 1528.82,1844.55 1530.16,1835.88 1532.5,1827.5 Z"/></g>
<g><path style="opacity:1" fill="#64ab67" d="M 1528.5,1856.5 C 1528.64,1861.41 1527.97,1866.08 1526.5,1870.5C 1526.36,1865.59 1527.03,1860.92 1528.5,1856.5 Z"/></g>
<g><path style="opacity:1" fill="#66ac69" d="M 1525.5,1881.5 C 1525.17,1889.35 1525.51,1897.02 1526.5,1904.5C 1526.22,1905.29 1525.72,1905.96 1525,1906.5C 1524.18,1897.99 1524.34,1889.66 1525.5,1881.5 Z"/></g>
</svg>
